X:0912
T:The Birks of Abergeldie
P:The Wind that shakes the Barley
C:Trad.
R:Reel (8x48) ABABAB
B:RSCDS 9-12
Z:Anselm Lingnau <anselm@strathspey.org>
M:4/4
L:1/8
K:D
B|:"D"A2AB AFED|"G"B2BA BcdB|"D"A2AB AFED|"G"gfed "A7"B2dB|
   "D"A2AB AFED|"G"B2BA BcdB|"D"A2AB AFED|"G"gfed "A7"B2||
de|"D"f2fd "A7"g2ge|"D"f2fd "A7"Bcde|"D"f2fd "G"g2ge|"D"afed "A7"B2 de|
   "D"f2fd "A7"g2ge|"D"f2fd "Em"Bcde|"D"fafd "Em"gbge\
      |1,2 "D"afed "G"BcdB:|3 "D"afed "G"Bcd|]
